P3
17 17
255
0 0 0
0 0 0
0 0 0
244 243 242
244 243 242
202 195 184
202 195 184
185 173 153
202 195 184
170 134 82
170 134 82
184 152 89
172 153 123
170 134 82
170 134 82
170 134 82
172 153 123
0 0 0
0 0 0
92 76 44
111 111 108
105 101 78
92 86 76
111 107 81
86 76 61
119 117 95
92 76 44
115 112 91
92 76 44
112 114 90
92 76 44
115 112 91
85 67 41
170 134 82
255 255 255
127 127 127
127 127 127
202 195 184
97 83 53
172 153 123
92 86 76
184 152 89
115 112 91
195 166 107
92 76 44
202 184 129
115 112 91
202 184 129
184 152 89
170 134 82
92 76 44
244 243 242
127 127 127
97 83 53
101 97 92
111 107 81
172 153 123
111 107 81
97 83 53
104 107 85
210 202 157
112 114 90
101 92 64
104 107 85
202 184 129
119 117 95
97 83 53
97 83 53
244 243 242
255 255 255
122 121 121
223 222 216
223 222 216
185 173 153
172 153 123
195 166 107
111 107 81
210 202 157
195 166 107
195 166 107
184 152 89
195 166 107
195 166 107
195 166 107
101 92 64
223 222 216
122 121 121
101 92 64
92 86 76
111 107 81
85 67 41
115 112 91
101 92 64
94 102 75
210 202 157
104 107 85
101 92 64
104 107 85
105 101 78
112 114 90
101 92 64
105 101 78
223 222 216
111 111 108
111 111 108
172 153 123
101 92 64
184 152 89
85 67 41
202 184 129
112 114 90
222 214 163
202 184 129
210 202 157
119 117 95
222 214 163
210 202 157
202 184 129
111 107 81
223 222 216
111 111 108
105 101 78
92 86 76
115 112 91
184 152 89
119 117 95
101 92 64
104 107 85
210 202 157
104 107 85
105 101 78
94 102 75
222 214 163
104 107 85
115 112 91
115 112 91
244 243 242
111 111 108
223 222 216
185 173 153
202 195 184
172 153 123
170 134 82
195 166 107
195 166 107
202 184 129
202 184 129
202 184 129
202 184 129
210 202 157
111 107 81
231 224 182
112 114 90
202 195 184
101 97 92
101 92 64
86 76 61
115 112 91
92 76 44
119 117 95
101 92 64
104 107 85
111 107 81
94 102 75
115 112 91
83 98 71
119 117 95
83 98 71
112 114 90
104 107 85
202 195 184
101 97 92
101 97 92
170 134 82
111 107 81
195 166 107
97 83 53
210 202 157
104 107 85
238 235 191
115 112 91
238 235 191
83 98 71
224 228 180
104 107 85
209 215 171
94 102 75
202 195 184
92 86 76
105 101 78
85 67 41
119 117 95
195 166 107
119 117 95
111 107 81
83 98 71
238 235 191
83 98 71
112 114 90
86 104 82
189 204 150
86 104 82
94 102 75
83 98 71
202 195 184
202 195 184
185 173 153
170 134 82
172 153 123
195 166 107
195 166 107
222 214 163
112 114 90
238 235 191
238 235 191
209 215 171
104 107 85
189 204 150
94 102 75
167 197 142
86 104 82
202 195 184
101 97 92
105 101 78
85 67 41
119 117 95
97 83 53
112 114 90
115 112 91
73 95 69
104 107 85
73 95 69
94 102 75
108 121 127
73 95 69
98 117 127
108 121 127
98 117 127
223 222 216
101 97 92
101 97 92
170 134 82
111 107 81
202 184 129
101 92 64
231 224 182
94 102 75
209 215 171
224 228 180
167 197 142
86 104 82
147 191 139
108 121 127
216 242 254
86 109 125
244 243 242
223 222 216
105 101 78
86 76 61
115 112 91
202 184 129
112 114 90
115 112 91
83 98 71
209 215 171
73 95 69
83 98 71
98 117 127
172 208 165
92 113 127
86 109 125
75 100 120
255 255 255
111 111 108
101 97 92
172 153 123
172 153 123
195 166 107
195 166 107
222 214 163
231 224 182
224 228 180
224 228 180
189 204 150
73 95 69
172 208 165
92 113 127
80 105 123
66 92 113
